src/epub/images/titlepage.svg

<?xml version="1.0" encoding="utf-8"?>
<svg xmlns="http://www.w3.org/2000/svg" xmlns:svg="http://www.w3.org/2000/svg" version="1.1" viewBox="0 0 1400 440">
	<title>The titlepage for the Standard Ebooks edition of The Adventures of Huckleberry Finn, by Mark Twain</title>
	<g>
		<path d="m 154.90058,68.245613 18.33918,0 0,61.754387 17.59064,0 0,-61.754387 18.33918,0 0,-15.438597 -54.269,0 0,15.438597 z"/>
		<path d="m 238.09502,99.029239 24.88889,0 0,30.970761 17.59064,0 0,-77.192984 -17.59064,0 0,30.783626 -24.88889,0 0,-30.783626 -17.59064,0 0,77.192984 17.59064,0 0,-30.970761 z"/>
		<path d="m 340.94006,52.807016 -44.16375,0 0,77.192984 44.16375,0 0,-15.4386 -26.5731,0 0,-15.532161 25.45029,0 0,-15.438597 -25.45029,0 0,-15.345029 26.5731,0 0,-15.438597 z"/>
		<path d="m 425.84211,52.807016 -16.28071,0 L 378.40351,130 l 18.90058,0 5.70761,-15.4386 29.38011,0 L 438.09942,130 457,130 425.84211,52.807016 Z m 0.5614,46.31579 -17.40351,0 8.60819,-22.45614 0.18713,0 8.60819,22.45614 z"/>
		<path d="m 464.91958,52.807016 0,77.192984 22.36257,0 c 21.23977,0 38.92398,-16.09357 38.92398,-38.643276 0,-22.45614 -17.77778,-38.549708 -38.92398,-38.549708 l -22.36257,0 z m 17.59064,61.473684 0,-45.754385 2.71345,0 c 13.09942,0 21.9883,10.011696 21.9883,22.923977 -0.0936,12.912278 -8.98245,22.830408 -21.9883,22.830408 l -2.71345,0 z"/>
		<path d="m 555.09795,130 13.84796,0 32.37427,-77.192984 -19.83626,0 -19.46199,50.713454 -19.46199,-50.713454 -19.83626,0 L 555.09795,130 Z"/>
		<path d="m 653.40351,52.807016 -44.16374,0 0,77.192984 44.16374,0 0,-15.4386 -26.5731,0 0,-15.532161 25.45029,0 0,-15.438597 -25.45029,0 0,-15.345029 26.5731,0 0,-15.438597 z"/>
		<path d="m 686.10672,82.093566 0.18713,0 L 716.98391,130 l 17.59064,0 0,-77.192984 -17.59064,0 0,47.906434 -0.18713,0 -30.69006,-47.906434 -17.59065,0 0,77.192984 17.59065,0 0,-47.906434 z"/>
		<path d="m 741.38452,68.245613 18.33919,0 0,61.754387 17.59064,0 0,-61.754387 18.33918,0 0,-15.438597 -54.26901,0 0,15.438597 z"/>
		<path d="m 866.30994,52.807016 -17.59064,0 0,44.63158 c 0,12.912284 -3.92983,16.654974 -12.53801,16.654974 -8.60819,0 -12.53802,-3.74269 -12.53802,-16.654974 l 0,-44.63158 -17.59064,0 0,49.777774 c 0,19.08772 10.47953,28.81872 30.12866,28.81872 19.64912,0 30.12865,-9.731 30.12865,-28.81872 l 0,-49.777774 z"/>
		<path d="m 881.6155,52.807016 0,77.192984 17.59064,0 0,-30.502925 L 922.78509,130 l 22.36257,0 -26.5731,-31.906433 c 9.4503,-2.994152 15.81287,-10.760234 15.81287,-22.362574 0,-15.157895 -10.8538,-22.923977 -25.16959,-22.923977 l -27.60234,0 z m 17.59064,34.245615 0,-20.210527 2.05848,0 c 6.64328,0 14.59649,0.467836 14.59649,10.105263 0,9.637428 -7.95321,10.105264 -14.59649,10.105264 l -2.05848,0 z"/>
		<path d="m 997.84797,52.807016 -44.16375,0 0,77.192984 44.16375,0 0,-15.4386 -26.5731,0 0,-15.532161 25.45029,0 0,-15.438597 -25.45029,0 0,-15.345029 26.5731,0 0,-15.438597 z"/>
		<path d="m 1041.405,51.403507 c -12.4445,0 -25.1696,9.169591 -25.1696,23.578948 0,8.046784 5.4269,15.251462 14.69,19.836258 9.1696,4.584795 17.4036,7.111107 17.4036,12.725147 0,7.20468 -7.2983,7.57895 -11.1346,7.57895 -8.6081,0 -18.9005,-8.70176 -18.9005,-8.70176 l -8.7954,14.78363 c 0,0 10.9474,10.19883 29.0059,10.19883 15.0643,0 29.0994,-6.45614 29.0994,-24.88889 0,-10.105264 -9.4503,-17.40351 -18.0585,-21.052632 -8.7953,-3.742691 -16.0935,-6.83041 -16.0935,-11.134504 0,-4.210526 3.1812,-6.923976 9.1696,-6.923976 7.9532,0 15.6257,5.333333 15.6257,5.333333 l 7.1111,-14.035088 c 0,0 -9.9181,-7.298246 -23.9532,-7.298246 z"/>
		<path d="m 1107.9489,91.356724 c 0,22.549706 16.0935,40.046786 38.9239,40.046786 22.1755,0 38.8304,-17.49708 38.8304,-40.046786 0,-22.549708 -17.4035,-39.953217 -38.8304,-39.953217 -21.2397,0 -38.9239,17.403509 -38.9239,39.953217 z m 18.9941,0 c 0,-11.508772 6.3626,-23.017544 19.9298,-23.017544 13.6609,0 19.8363,11.508772 19.8363,23.017544 0,11.508776 -5.8012,23.017546 -19.8363,23.017546 -14.4093,0 -19.9298,-11.50877 -19.9298,-23.017546 z"/>
		<path d="m 1243.0965,52.807016 -44.6316,0 0,77.192984 17.5907,0 0,-30.970761 24.9824,0 0,-15.438597 -24.9824,0 0,-15.345029 27.0409,0 0,-15.438597 z"/>
	</g>
	<g>
		<path d="m 204.4364,199.02924 24.88888,0 0,30.97076 17.59065,0 0,-77.19298 -17.59065,0 0,30.78362 -24.88888,0 0,-30.78362 -17.59065,0 0,77.19298 17.59065,0 0,-30.97076 z"/>
		<path d="m 322.43932,152.80702 -17.59064,0 0,44.63158 c 0,12.91228 -3.92982,16.65497 -12.53801,16.65497 -8.60819,0 -12.53801,-3.74269 -12.53801,-16.65497 l 0,-44.63158 -17.59065,0 0,49.77777 c 0,19.08772 10.47954,28.81872 30.12866,28.81872 19.64912,0 30.12865,-9.731 30.12865,-28.81872 l 0,-49.77777 z"/>
		<path d="m 375.89693,214.09357 c -17.68421,0 -25.45029,-12.35088 -25.45029,-22.73685 0,-10.29239 7.76608,-22.64327 25.45029,-22.64327 8.98246,0 15.1579,4.77193 15.1579,4.77193 l 7.48538,-14.97076 c 0,0 -8.60819,-7.11111 -25.35673,-7.11111 -21.89473,0 -41.82456,17.96491 -41.82456,40.14035 0,22.08187 20.02339,39.85965 41.82456,39.85965 16.74854,0 25.35673,-7.11111 25.35673,-7.11111 l -7.48538,-14.97076 c 0,0 -6.17544,4.77193 -15.1579,4.77193 z"/>
		<path d="m 480.63084,230 -35.92982,-40.60819 31.06432,-36.58479 -21.33333,0 -26.47953,31.53216 0,-31.53216 -17.59065,0 0,77.19298 17.59065,0 0,-32.74854 28.44444,32.74854 24.23392,0 z"/>
		<path d="m 506.60015,152.80702 -17.59064,0 0,77.19298 44.16374,0 0,-15.4386 -26.5731,0 0,-61.75438 z"/>
		<path d="m 590.98758,152.80702 -44.16374,0 0,77.19298 44.16374,0 0,-15.4386 -26.5731,0 0,-15.53216 25.4503,0 0,-15.4386 -25.4503,0 0,-15.34503 26.5731,0 0,-15.43859 z"/>
		<path d="m 606.10015,152.80702 0,77.19298 29.28655,0 c 16,0 25.26315,-8.79532 25.26315,-21.52047 0,-12.44444 -6.8304,-17.77778 -16.46783,-19.46199 6.54971,-3.36842 9.63743,-9.45029 9.63743,-16.5614 0,-14.69006 -10.47954,-19.64912 -23.76609,-19.64912 l -23.95321,0 z m 17.59064,30.22222 0,-16.65497 1.40351,0 c 7.67251,0 11.69591,2.33918 11.69591,7.85965 0,6.45614 -4.11696,8.79532 -11.69591,8.79532 l -1.40351,0 z m 0,33.40351 0,-18.24562 5.52047,0 c 8.32748,0 12.91228,2.52632 12.91228,9.63743 0,6.08187 -4.5848,8.60819 -12.91228,8.60819 l -5.52047,0 z"/>
		<path d="m 717.58115,152.80702 -44.16374,0 0,77.19298 44.16374,0 0,-15.4386 -26.5731,0 0,-15.53216 25.45029,0 0,-15.4386 -25.45029,0 0,-15.34503 26.5731,0 0,-15.43859 z"/>
		<path d="m 732.69371,152.80702 0,77.19298 17.59065,0 0,-30.50292 L 773.8633,230 l 22.36258,0 -26.5731,-31.90643 c 9.45029,-2.99416 15.81286,-10.76024 15.81286,-22.36258 0,-15.15789 -10.8538,-22.92397 -25.16959,-22.92397 l -27.60234,0 z m 17.59065,34.24561 0,-20.21053 2.05848,0 c 6.64327,0 14.59649,0.46784 14.59649,10.10527 0,9.63742 -7.95322,10.10526 -14.59649,10.10526 l -2.05848,0 z"/>
		<path d="m 804.76244,152.80702 0,77.19298 17.59064,0 0,-30.50292 23.57895,30.50292 22.36257,0 -26.5731,-31.90643 c 9.4503,-2.99416 15.81287,-10.76024 15.81287,-22.36258 0,-15.15789 -10.8538,-22.92397 -25.16959,-22.92397 l -27.60234,0 z m 17.59064,34.24561 0,-20.21053 2.05848,0 c 6.64328,0 14.59649,0.46784 14.59649,10.10527 0,9.63742 -7.95321,10.10526 -14.59649,10.10526 l -2.05848,0 z"/>
		<path d="m 860.00368,152.80702 28.44444,42.5731 0,34.61988 17.59065,0 0,-34.61988 28.44444,-42.5731 -21.1462,0 -16.09356,24.70175 -16.09357,-24.70175 -21.1462,0 z"/>
		<path d="m 1017.5373,152.80702 -44.63161,0 0,77.19298 17.59064,0 0,-30.97076 24.98247,0 0,-15.4386 -24.98247,0 0,-15.34503 27.04097,0 0,-15.43859 z"/>
		<path d="m 1048.4935,152.80702 -17.5907,0 0,77.19298 17.5907,0 0,-77.19298 z"/>
		<path d="m 1082.3677,182.09357 0.1872,0 30.69,47.90643 17.5907,0 0,-77.19298 -17.5907,0 0,47.90643 -0.1871,0 -30.6901,-47.90643 -17.5906,0 0,77.19298 17.5906,0 0,-47.90643 z"/>
		<path d="m 1164.6703,182.09357 0.1872,0 30.69,47.90643 17.5907,0 0,-77.19298 -17.5907,0 0,47.90643 -0.1871,0 -30.6901,-47.90643 -17.5906,0 0,77.19298 17.5906,0 0,-47.90643 z"/>
	</g>
	<g>
		<path d="m 483.95614,390 13.19298,0 -5.19298,-57.89474 -14.03509,0 -12.8421,33.40351 -12.84211,-33.40351 -14.03508,0 -5.19299,57.89474 13.19299,0 2.73684,-34.31579 0.35088,0 11.85964,33.96491 7.85965,0 11.85965,-33.96491 0.35088,0 L 483.95614,390 Z"/>
		<path d="m 536.83772,332.10526 -12.21053,0 L 501.25877,390 l 14.17544,0 4.2807,-11.57895 22.03509,0 4.2807,11.57895 14.17544,0 -23.36842,-57.89474 z m 0.42105,34.73685 -13.05263,0 6.45614,-16.84211 0.14035,0 6.45614,16.84211 z"/>
		<path d="m 567.39584,332.10526 0,57.89474 13.19298,0 0,-22.87719 17.68421,22.87719 16.77193,0 -19.92982,-23.92982 c 7.08772,-2.24562 11.85965,-8.07018 11.85965,-16.77193 0,-11.36842 -8.14035,-17.19299 -18.8772,-17.19299 l -20.70175,0 z m 13.19298,25.68421 0,-15.15789 1.54386,0 c 4.98246,0 10.94737,0.35088 10.94737,7.57895 0,7.22807 -5.96491,7.57894 -10.94737,7.57894 l -1.54386,0 z"/>
		<path d="m 675.39912,390 -26.94736,-30.45614 23.29824,-27.4386 -16,0 -19.85965,23.64913 0,-23.64913 -13.19298,0 0,57.89474 13.19298,0 0,-24.5614 21.33333,24.5614 18.17544,0 z"/>
		<path d="m 700.04603,343.68421 13.75439,0 0,46.31579 13.19298,0 0,-46.31579 13.75439,0 0,-11.57895 -40.70176,0 0,11.57895 z"/>
		<path d="m 794.91995,390 14.59649,0 16.49123,-57.89474 -14.59649,0 -9.89474,39.7193 -0.35088,0 -10.52631,-39.7193 -9.96491,0 -10.52632,39.7193 -0.35088,0 -9.89473,-39.7193 -14.66667,0 16.49123,57.89474 14.66666,0 9.26316,-32.49123 L 794.91995,390 Z"/>
		<path d="m 857.13376,332.10526 -12.21053,0 L 821.55481,390 l 14.17544,0 4.2807,-11.57895 22.03509,0 4.2807,11.57895 14.17544,0 -23.36842,-57.89474 z m 0.42105,34.73685 -13.05263,0 6.45614,-16.84211 0.14035,0 6.45614,16.84211 z"/>
		<path d="m 900.88487,332.10526 -13.19298,0 0,57.89474 13.19298,0 0,-57.89474 z"/>
		<path d="m 927.54057,354.07018 0.14036,0 23.01754,35.92982 13.19298,0 0,-57.89474 -13.19298,0 0,35.92983 -0.14035,0 -23.01755,-35.92983 -13.19298,0 0,57.89474 13.19298,0 0,-35.92982 z"/>
	</g>
</svg>

<?xml version="1.0" encoding="utf-8"?>
<svg xmlns="http://www.w3.org/2000/svg" xmlns:svg="http://www.w3.org/2000/svg" version="1.1" viewBox="0 0 1400 440">
	<title>The titlepage for the Standard Ebooks edition of The Adventures of Huckleberry Finn, by Mark Twain</title>
	<g aria-label="THE ADVENTURES OF">
		<path d="m 154.90058,68.245613 h 18.33918 V 130 H 190.8304 V 68.245613 h 18.33918 V 52.807016 h -54.269 z"/>
		<path d="m 238.09502,99.029239 h 24.88889 V 130 h 17.59064 V 52.807016 H 262.98391 V 83.590642 H 238.09502 V 52.807016 H 220.50438 V 130 h 17.59064 z"/>
		<path d="M 340.94006,52.807016 H 296.77631 V 130 h 44.16375 v -15.4386 h -26.5731 V 99.029239 h 25.45029 V 83.590642 H 314.36696 V 68.245613 h 26.5731 z"/>
		<path d="M 425.84211,52.807016 H 409.5614 L 378.40351,130 h 18.90058 l 5.70761,-15.4386 h 29.38011 L 438.09942,130 H 457 Z m 0.5614,46.31579 H 409 l 8.60819,-22.45614 h 0.18713 z"/>
		<path d="M 464.91958,52.807016 V 130 h 22.36257 c 21.23977,0 38.92398,-16.09357 38.92398,-38.643276 0,-22.45614 -17.77778,-38.549708 -38.92398,-38.549708 z M 482.51022,114.2807 V 68.526315 h 2.71345 c 13.09942,0 21.9883,10.011696 21.9883,22.923977 -0.0936,12.912278 -8.98245,22.830408 -21.9883,22.830408 z"/>
		<path d="m 555.09795,130 h 13.84796 L 601.32018,52.807016 H 581.48392 L 562.02193,103.52047 542.55994,52.807016 h -19.83626 z"/>
		<path d="M 653.40351,52.807016 H 609.23977 V 130 h 44.16374 v -15.4386 h -26.5731 V 99.029239 H 652.2807 V 83.590642 H 626.83041 V 68.245613 h 26.5731 z"/>
		<path d="m 686.10672,82.093566 h 0.18713 L 716.98391,130 h 17.59064 V 52.807016 h -17.59064 v 47.906434 h -0.18713 L 686.10672,52.807016 H 668.51607 V 130 h 17.59065 z"/>
		<path d="m 741.38452,68.245613 h 18.33919 V 130 h 17.59064 V 68.245613 h 18.33918 V 52.807016 h -54.26901 z"/>
		<path d="M 866.30994,52.807016 H 848.7193 v 44.63158 c 0,12.912284 -3.92983,16.654974 -12.53801,16.654974 -8.60819,0 -12.53802,-3.74269 -12.53802,-16.654974 v -44.63158 h -17.59064 v 49.777774 c 0,19.08772 10.47953,28.81872 30.12866,28.81872 19.64912,0 30.12865,-9.731 30.12865,-28.81872 z"/>
		<path d="M 881.6155,52.807016 V 130 h 17.59064 V 99.497075 L 922.78509,130 h 22.36257 l -26.5731,-31.906433 c 9.4503,-2.994152 15.81287,-10.760234 15.81287,-22.362574 0,-15.157895 -10.8538,-22.923977 -25.16959,-22.923977 z m 17.59064,34.245615 V 66.842104 h 2.05848 c 6.64328,0 14.59649,0.467836 14.59649,10.105263 0,9.637428 -7.95321,10.105264 -14.59649,10.105264 z"/>
		<path d="M 997.84797,52.807016 H 953.68422 V 130 h 44.16375 v -15.4386 h -26.5731 V 99.029239 h 25.45029 V 83.590642 H 971.27487 V 68.245613 h 26.5731 z"/>
		<path d="m 1041.405,51.403507 c -12.4445,0 -25.1696,9.169591 -25.1696,23.578948 0,8.046784 5.4269,15.251462 14.69,19.836258 9.1696,4.584795 17.4036,7.111107 17.4036,12.725147 0,7.20468 -7.2983,7.57895 -11.1346,7.57895 -8.6081,0 -18.9005,-8.70176 -18.9005,-8.70176 l -8.7954,14.78363 c 0,0 10.9474,10.19883 29.0059,10.19883 15.0643,0 29.0994,-6.45614 29.0994,-24.88889 0,-10.105264 -9.4503,-17.40351 -18.0585,-21.052632 -8.7953,-3.742691 -16.0935,-6.83041 -16.0935,-11.134504 0,-4.210526 3.1812,-6.923976 9.1696,-6.923976 7.9532,0 15.6257,5.333333 15.6257,5.333333 l 7.1111,-14.035088 c 0,0 -9.9181,-7.298246 -23.9532,-7.298246 z"/>
		<path d="m 1107.9489,91.356724 c 0,22.549706 16.0935,40.046786 38.9239,40.046786 22.1755,0 38.8304,-17.49708 38.8304,-40.046786 0,-22.549708 -17.4035,-39.953217 -38.8304,-39.953217 -21.2397,0 -38.9239,17.403509 -38.9239,39.953217 z m 18.9941,0 c 0,-11.508772 6.3626,-23.017544 19.9298,-23.017544 13.6609,0 19.8363,11.508772 19.8363,23.017544 0,11.508776 -5.8012,23.017546 -19.8363,23.017546 -14.4093,0 -19.9298,-11.50877 -19.9298,-23.017546 z"/>
		<path d="m 1243.0965,52.807016 h -44.6316 V 130 h 17.5907 V 99.029239 h 24.9824 V 83.590642 h -24.9824 V 68.245613 h 27.0409 z"/>
	</g>
	<g aria-label="HUCKLEBERRY FINN">
		<path d="m 204.4364,199.02924 h 24.88888 V 230 h 17.59065 v -77.19298 h -17.59065 v 30.78362 H 204.4364 V 152.80702 H 186.84575 V 230 h 17.59065 z"/>
		<path d="m 322.43932,152.80702 h -17.59064 v 44.63158 c 0,12.91228 -3.92982,16.65497 -12.53801,16.65497 -8.60819,0 -12.53801,-3.74269 -12.53801,-16.65497 v -44.63158 h -17.59065 v 49.77777 c 0,19.08772 10.47954,28.81872 30.12866,28.81872 19.64912,0 30.12865,-9.731 30.12865,-28.81872 z"/>
		<path d="m 375.89693,214.09357 c -17.68421,0 -25.45029,-12.35088 -25.45029,-22.73685 0,-10.29239 7.76608,-22.64327 25.45029,-22.64327 8.98246,0 15.1579,4.77193 15.1579,4.77193 l 7.48538,-14.97076 c 0,0 -8.60819,-7.11111 -25.35673,-7.11111 -21.89473,0 -41.82456,17.96491 -41.82456,40.14035 0,22.08187 20.02339,39.85965 41.82456,39.85965 16.74854,0 25.35673,-7.11111 25.35673,-7.11111 l -7.48538,-14.97076 c 0,0 -6.17544,4.77193 -15.1579,4.77193 z"/>
		<path d="m 480.63084,230 -35.92982,-40.60819 31.06432,-36.58479 h -21.33333 l -26.47953,31.53216 V 152.80702 H 410.36183 V 230 h 17.59065 V 197.25146 L 456.39692,230 Z"/>
		<path d="M 506.60015,152.80702 H 489.00951 V 230 h 44.16374 v -15.4386 h -26.5731 z"/>
		<path d="M 590.98758,152.80702 H 546.82384 V 230 h 44.16374 v -15.4386 h -26.5731 v -15.53216 h 25.4503 v -15.4386 h -25.4503 v -15.34503 h 26.5731 z"/>
		<path d="M 606.10015,152.80702 V 230 h 29.28655 c 16,0 25.26315,-8.79532 25.26315,-21.52047 0,-12.44444 -6.8304,-17.77778 -16.46783,-19.46199 6.54971,-3.36842 9.63743,-9.45029 9.63743,-16.5614 0,-14.69006 -10.47954,-19.64912 -23.76609,-19.64912 z m 17.59064,30.22222 v -16.65497 h 1.40351 c 7.67251,0 11.69591,2.33918 11.69591,7.85965 0,6.45614 -4.11696,8.79532 -11.69591,8.79532 z m 0,33.40351 v -18.24562 h 5.52047 c 8.32748,0 12.91228,2.52632 12.91228,9.63743 0,6.08187 -4.5848,8.60819 -12.91228,8.60819 z"/>
		<path d="M 717.58115,152.80702 H 673.41741 V 230 h 44.16374 v -15.4386 h -26.5731 v -15.53216 h 25.45029 v -15.4386 h -25.45029 v -15.34503 h 26.5731 z"/>
		<path d="M 732.69371,152.80702 V 230 h 17.59065 V 199.49708 L 773.8633,230 h 22.36258 l -26.5731,-31.90643 c 9.45029,-2.99416 15.81286,-10.76024 15.81286,-22.36258 0,-15.15789 -10.8538,-22.92397 -25.16959,-22.92397 z m 17.59065,34.24561 V 166.8421 h 2.05848 c 6.64327,0 14.59649,0.46784 14.59649,10.10527 0,9.63742 -7.95322,10.10526 -14.59649,10.10526 z"/>
		<path d="M 804.76244,152.80702 V 230 h 17.59064 V 199.49708 L 845.93203,230 h 22.36257 l -26.5731,-31.90643 c 9.4503,-2.99416 15.81287,-10.76024 15.81287,-22.36258 0,-15.15789 -10.8538,-22.92397 -25.16959,-22.92397 z m 17.59064,34.24561 V 166.8421 h 2.05848 c 6.64328,0 14.59649,0.46784 14.59649,10.10527 0,9.63742 -7.95321,10.10526 -14.59649,10.10526 z"/>
		<path d="m 860.00368,152.80702 28.44444,42.5731 V 230 h 17.59065 v -34.61988 l 28.44444,-42.5731 h -21.1462 l -16.09356,24.70175 -16.09357,-24.70175 z"/>
		<path d="M 1017.5373,152.80702 H 972.90569 V 230 h 17.59064 v -30.97076 h 24.98247 v -15.4386 h -24.98247 v -15.34503 h 27.04097 z"/>
		<path d="m 1048.4935,152.80702 h -17.5907 V 230 h 17.5907 z"/>
		<path d="m 1082.3677,182.09357 h 0.1872 L 1113.2449,230 h 17.5907 v -77.19298 h -17.5907 v 47.90643 h -0.1871 l -30.6901,-47.90643 h -17.5906 V 230 h 17.5906 z"/>
		<path d="m 1164.6703,182.09357 h 0.1872 L 1195.5475,230 h 17.5907 v -77.19298 h -17.5907 v 47.90643 h -0.1871 l -30.6901,-47.90643 h -17.5906 V 230 h 17.5906 z"/>
	</g>
	<g aria-label="MARK TWAIN">
		<path d="m 483.95614,390 h 13.19298 l -5.19298,-57.89474 h -14.03509 l -12.8421,33.40351 -12.84211,-33.40351 H 438.20176 L 433.00877,390 h 13.19299 l 2.73684,-34.31579 h 0.35088 l 11.85964,33.96491 h 7.85965 l 11.85965,-33.96491 h 0.35088 z"/>
		<path d="M 536.83772,332.10526 H 524.62719 L 501.25877,390 h 14.17544 l 4.2807,-11.57895 H 541.75 L 546.0307,390 h 14.17544 z m 0.42105,34.73685 H 524.20614 L 530.66228,350 h 0.14035 z"/>
		<path d="M 567.39584,332.10526 V 390 h 13.19298 V 367.12281 L 598.27303,390 h 16.77193 l -19.92982,-23.92982 c 7.08772,-2.24562 11.85965,-8.07018 11.85965,-16.77193 0,-11.36842 -8.14035,-17.19299 -18.8772,-17.19299 z m 13.19298,25.68421 v -15.15789 h 1.54386 c 4.98246,0 10.94737,0.35088 10.94737,7.57895 0,7.22807 -5.96491,7.57894 -10.94737,7.57894 z"/>
		<path d="M 675.39912,390 648.45176,359.54386 671.75,332.10526 h -16 l -19.85965,23.64913 V 332.10526 H 622.69737 V 390 h 13.19298 V 365.4386 L 657.22368,390 Z"/>
		<path d="m 700.04603,343.68421 h 13.75439 V 390 h 13.19298 v -46.31579 h 13.75439 v -11.57895 h -40.70176 z"/>
		<path d="m 794.91995,390 h 14.59649 l 16.49123,-57.89474 h -14.59649 l -9.89474,39.7193 h -0.35088 l -10.52631,-39.7193 h -9.96491 l -10.52632,39.7193 h -0.35088 l -9.89473,-39.7193 H 745.23574 L 761.72697,390 h 14.66666 l 9.26316,-32.49123 z"/>
		<path d="M 857.13376,332.10526 H 844.92323 L 821.55481,390 h 14.17544 l 4.2807,-11.57895 h 22.03509 L 866.32674,390 h 14.17544 z m 0.42105,34.73685 H 844.50218 L 850.95832,350 h 0.14035 z"/>
		<path d="M 900.88487,332.10526 H 887.69189 V 390 h 13.19298 z"/>
		<path d="m 927.54057,354.07018 h 0.14036 L 950.69847,390 h 13.19298 v -57.89474 h -13.19298 v 35.92983 h -0.14035 L 927.54057,332.10526 H 914.34759 V 390 h 13.19298 z"/>
	</g>
</svg>
